X: 3688
T: Billy McCormack's
R: jig
M: 6/8
K: Adorian
ABG A2 g|edg gdB|GGG BAG|dBG AGE|
ABG A2 g|edB def|g2 e fdB|BAG A2:|
aa/a/a bge|aaa bge|ggg gdB|GAB deg|
a2 b age|edB ded|g2 e fdB|BAG A2:|

